**harm	**harte	**timestamp	**phrase	**leadinstrument	**kern
*M12/8	*M12/8	*	*	*	*
*E:	*E:	*	*	*	*E:
1r;	N	0	.	r	1r;
=1	=1	=1	=1	=1	=1
*>A_intro	*>A_intro	*>A_intro	*>A_intro	*>A_intro	*>A_intro
2.I	E:maj	0.464	newline	r	2E 2g# 2b
2.I+7	E:aug(7)	2.494	.	r	2E 2g# 2b# 2dd#
=2	=2	=2	=2	=2	=2
1.IV	A:maj	4.523	.	r	1A 1cc# 1ee
=3	=3	=3	=3	=3	=3
1.iv	A:min6	8.582	.	r	1A 1cc 1ee
=4	=4	=4	=4	=4	=4
1.I	E:maj	12.641	.	r	1E 1g# 1b
=5	=5	=5	=5	=5	=5
4.V	B:maj	16.7	.	r	4B 4dd# 4ff#
4.IV	A:maj	17.715	.	r	4A 4cc# 4ee
4.iii	G#:min	18.729	.	r	4G# 4b 4dd#
4.ii	F#:min	19.744	.	r	4F# 4a 4cc#
=6	=6	=6	=6	=6	=6
*>B_verse	*>B_verse	*>B_verse	*>B_verse	*>B_verse	*>B_verse
2.I	E:maj	20.759	newline	voice	2E 2g# 2b
2.I+	E:aug	22.776	.	voice	2E 2g# 2b#
=7	=7	=7	=7	=7	=7
2.IV7	A:maj7	24.794	.	voice	2A 2cc# 2ee 2gg#
2.iv	A:min6	26.811	.	voice	2A 2cc 2ee
=8	=8	=8	=8	=8	=8
2.I	E:maj	28.829	.	voice	2E 2g# 2b
2.III7	G#:7	30.846	.	voice	2G# 2b# 2dd# 2ff#
=9	=9	=9	=9	=9	=9
1.VI7	C#:7(b9)	32.864	.	voice	1C# 1e# 1g# 1b
=10	=10	=10	=10	=10	=10
1.II7	F#:7	36.899	newline	voice	1F# 1a# 1cc# 1ee
=11	=11	=11	=11	=11	=11
1.II7	F#:7	40.947	.	voice	1F# 1a# 1cc# 1ee
=12	=12	=12	=12	=12	=12
1.ii7	F#:min7	44.994	.	voice	1F# 1a 1cc# 1ee
=13	=13	=13	=13	=13	=13
4.V	B:maj	49.041	.	voice	4B 4dd# 4ff#
4.IV	A:maj	50.053	.	voice	4A 4cc# 4ee
4.iii	G#:min	51.065	.	voice	4G# 4b 4dd#
4.ii	F#:min	52.077	.	voice	4F# 4a 4cc#
=14	=14	=14	=14	=14	=14
*>B_verse	*>B_verse	*>B_verse	*>B_verse	*>B_verse	*>B_verse
2.I	E:maj	53.089	newline	voice	2E 2g# 2b
2.I+	E:aug	55.119	.	voice	2E 2g# 2b#
=15	=15	=15	=15	=15	=15
2.IV7	A:maj7	57.15	.	voice	2A 2cc# 2ee 2gg#
2.iv	A:min6	59.18	.	voice	2A 2cc 2ee
=16	=16	=16	=16	=16	=16
2.I	E:maj	61.211	.	voice	2E 2g# 2b
2.III7	G#:7	63.241	.	voice	2G# 2b# 2dd# 2ff#
=17	=17	=17	=17	=17	=17
1.VI7	C#:7(b9)	65.272	.	voice	1C# 1e# 1g# 1b
=18	=18	=18	=18	=18	=18
1.II7	F#:7	69.333	newline	voice	1F# 1a# 1cc# 1ee
=19	=19	=19	=19	=19	=19
1.II7	F#:7	73.364	.	voice	1F# 1a# 1cc# 1ee
=20	=20	=20	=20	=20	=20
1.ii7	F#:min7	77.396	.	voice	1F# 1a 1cc# 1ee
=21	=21	=21	=21	=21	=21
4.V	B:maj	81.428	.	voice	4B 4dd# 4ff#
4.IV	A:maj	82.436	.	voice	4A 4cc# 4ee
4.iii	G#:min	83.444	.	voice	4G# 4b 4dd#
4.ii	F#:min	84.452	.	voice	4F# 4a 4cc#
=22	=22	=22	=22	=22	=22
*>C_bridge	*>C_bridge	*>C_bridge	*>C_bridge	*>C_bridge	*>C_bridge
1.IV	A:maj	85.46	newline	voice	1A 1cc# 1ee
=23	=23	=23	=23	=23	=23
1.iii	G#:min	89.516	.	voice	1G# 1b 1dd#
=24	=24	=24	=24	=24	=24
2.ii7	F#:min7	93.572	.	voice	2F# 2a 2cc# 2ee
2.V	B:maj	95.599	.	voice	2B 2dd# 2ff#
=25	=25	=25	=25	=25	=25
2.I7	E:maj7	97.627	.	voice	2E 2g# 2b 2dd#
2.Im7	E:7	99.655	.	voice	2E 2g# 2b 2dd#
=26	=26	=26	=26	=26	=26
1.IV	A:maj	101.683	newline	voice	1A 1cc# 1ee
=27	=27	=27	=27	=27	=27
2.iii7	G#:min7	105.731	.	voice	2G# 2b 2dd# 2ff#
2.VI7	C#:7	107.756	.	voice	2C# 2e# 2g# 2b
=28	=28	=28	=28	=28	=28
1.II7	F#:7	109.78	.	voice	1F# 1a# 1cc# 1ee
=29	=29	=29	=29	=29	=29
4.V	B:maj	113.828	.	voice	4B 4dd# 4ff#
4.IV	A:maj	114.84	.	voice	4A 4cc# 4ee
4.iii	G#:min	115.852	.	voice	4G# 4b 4dd#
4.ii	F#:min	116.864	.	voice	4F# 4a 4cc#
=30	=30	=30	=30	=30	=30
*>B_verse	*>B_verse	*>B_verse	*>B_verse	*>B_verse	*>B_verse
2.I	E:maj	117.876	newline	voice	2E 2g# 2b
2.I+	E:aug	119.892	.	voice	2E 2g# 2b#
=31	=31	=31	=31	=31	=31
2.IV7	A:maj7	121.908	.	voice	2A 2cc# 2ee 2gg#
2.iv	A:min6	123.923	.	voice	2A 2cc 2ee
=32	=32	=32	=32	=32	=32
2.I	E:maj	125.939	.	voice	2E 2g# 2b
2.III7	G#:7	127.955	.	voice	2G# 2b# 2dd# 2ff#
=33	=33	=33	=33	=33	=33
1.VI7	C#:7(b9)	129.971	.	voice	1C# 1e# 1g# 1b
=34	=34	=34	=34	=34	=34
1.II7	F#:7	134.002	newline	voice	1F# 1a# 1cc# 1ee
=35	=35	=35	=35	=35	=35
1.II7	F#:7	138.055	.	voice	1F# 1a# 1cc# 1ee
=36	=36	=36	=36	=36	=36
2.ii7	F#:min7	142.108	.	voice	2F# 2a 2cc# 2ee
2.V7	B:7	144.134	.	voice	2B 2dd# 2ff# 2aa
=37	=37	=37	=37	=37	=37
2.I	E:maj	146.16	.	voice	2E 2g# 2b
2.I+m7	E:aug(b7)	148.187	.	voice	2E 2g# 2b# 2dd#
=38	=38	=38	=38	=38	=38
*>C_bridge	*>C_bridge	*>C_bridge	*>C_bridge	*>C_bridge	*>C_bridge
1.IV	A:maj	150.213	newline	guitar	1A 1cc# 1ee
=39	=39	=39	=39	=39	=39
1.iii	G#:min	154.269	.	guitar	1G# 1b 1dd#
=40	=40	=40	=40	=40	=40
2.ii7	F#:min7	158.325	.	guitar	2F# 2a 2cc# 2ee
2.V	B:maj	160.353	.	guitar	2B 2dd# 2ff#
=41	=41	=41	=41	=41	=41
2.I	E:maj	162.381	.	guitar	2E 2g# 2b
2.Im7	E:7	164.409	.	guitar	2E 2g# 2b 2dd#
=42	=42	=42	=42	=42	=42
1.IV	A:maj	166.437	newline	voice	1A 1cc# 1ee
=43	=43	=43	=43	=43	=43
1.iii	G#:min	170.47	.	voice	1G# 1b 1dd#
=44	=44	=44	=44	=44	=44
1.II7	F#:7	174.503	.	voice	1F# 1a# 1cc# 1ee
=45	=45	=45	=45	=45	=45
2.V7	B:7	178.537	.	voice	2B 2dd# 2ff# 2aa
2.-VIm7	C:7	180.553	.	voice	2C 2e 2g 2b
=46	=46	=46	=46	=46	=46
*>B_verse	*>B_verse	*>B_verse	*>B_verse	*>B_verse	*>B_verse
*F:	*F:	*	*	*	*F:
2.I	F:maj	182.57	newline	voice	2F 2a 2cc
2.I+	F:aug	184.596	.	voice	2F 2a 2cc#
=47	=47	=47	=47	=47	=47
2.IV7	B-:maj7	186.622	.	voice	2B- 2dd 2ff 2aa
2.iv	B-:min	188.648	.	voice	2B- 2dd- 2ff
=48	=48	=48	=48	=48	=48
2.I	F:maj	190.674	.	voice	2F 2a 2cc
2.III7	A:7	192.7	.	voice	2A 2cc# 2ee 2gg
=49	=49	=49	=49	=49	=49
1.VI7	D:7(b9)	194.727	.	voice	1D 1f# 1a 1cc
=50	=50	=50	=50	=50	=50
1.II7	G:7	198.779	newline	voice	1G 1b 1dd 1ff
=51	=51	=51	=51	=51	=51
1.II7	G:7	202.819	.	voice	1G 1b 1dd 1ff
=52	=52	=52	=52	=52	=52
2.ii7	G:min7	206.86	.	voice	2G 2b- 2dd 2ff
2.V7	C:7	208.88	.	voice	2C 2e 2g 2b-
=53	=53	=53	=53	=53	=53
4.I	F:maj	210.9	.	voice	4F 4a 4cc
4.Im7d	F:7/b7	211.91	.	voice	4f 4a 4cc 4E
2.VI7	D:7	212.92	.	voice	2D 2f# 2a 2cc
=54	=54	=54	=54	=54	=54
1.II7	G:7	214.94	newline	voice	1G 1b 1dd 1ff
=55	=55	=55	=55	=55	=55
2.V7	C:7	219.269	.	voice	2C 2e 2g 2b-
2.r	N	220.352	.	voice	2r
=56	=56	=56	=56	=56	=56
1.I	F:maj	223.598	.	voice	1F 1a 1cc
=57	=57	=57	=57	=57	=57
2.IV	B-:maj	227.927	.	voice	2B- 2dd 2ff
2.iv	B-:min6	230.092	.	voice	2B- 2dd- 2ff
=58	=58	=58	=58	=58	=58
1.I	F:maj	232.256	newline	voice	1F 1a 1cc
1r;	N	239.769	.	r	1r;
1r;	N	243.409	.	r	1r;
*-	*-	*-	*-	*-	*-
!!!OTL: Break It To Me Gently
!!!COC: Juice Newton
!!!BillboardChartDate: 1982/08/21
!!!BillboardPeak: 11
!!!BillboardWeeksOnChart: 17
!!!SampleTargetRank: 74
!!!SampleActualRank: 74
!!!SampleID#: 0303
!!!RDF**harmony: **recip + pitch class of root + harmonic quality
!!!RDF**harte: Chris Harte's syntax, used by MIREX
!!!RDF**phrase: newline = linebreak in original McGill transcription
!!!RDF**timestamp: McGill audio timestamp in seconds
!!!RDF**leadinstrument: original McGill primary instrumentation annotation
!!!RDT: 2017/01/12/
!!!ENC: Nathaniel Condit-Schultz
!!!EST: Awating manual error checking and editing.
